symbols/web/computer/materialsymbolsrounded/computer_wght700fill1_20px.svg

<svg xmlns="http://www.w3.org/2000/svg" height="20" width="20"><path d="M3.646 15.583q-1.125 0-1.917-.791Q.938 14 .938 12.875V4.5q0-1.125.791-1.917.792-.791 1.917-.791h12.687q1.125 0 1.917.791.792.792.792 1.917v8.375q0 1.125-.792 1.917-.792.791-1.917.791Zm-2.417 2.938q-.417 0-.729-.313-.312-.312-.312-.729T.5 16.76q.312-.302.729-.302h17.542q.417 0 .729.302t.312.719q0 .417-.312.729-.312.313-.729.313Z"/></svg>

<svg xmlns="http://www.w3.org/2000/svg" height="20" width="20"><path d="M3.646 15.583Q2.521 15.583 1.729 14.792Q0.938 14 0.938 12.875V4.5Q0.938 3.375 1.729 2.583Q2.521 1.792 3.646 1.792H16.333Q17.458 1.792 18.25 2.583Q19.042 3.375 19.042 4.5V12.875Q19.042 14 18.25 14.792Q17.458 15.583 16.333 15.583ZM1.229 18.521Q0.812 18.521 0.5 18.208Q0.188 17.896 0.188 17.479Q0.188 17.062 0.5 16.76Q0.812 16.458 1.229 16.458H18.771Q19.188 16.458 19.5 16.76Q19.812 17.062 19.812 17.479Q19.812 17.896 19.5 18.208Q19.188 18.521 18.771 18.521Z"/></svg>
